alura/assets/api/cursos/visao-computacional-deteccao-movimento-opencv.svg

<svg width="50" height="50" viewBox="0 0 50 50" fill="none" xmlns="http://www.w3.org/2000/svg">
<g clip-path="url(#clip0_612_2)">
<path d="M12.1002 42.5L49.8002 29L48.8002 7.79999L2.2002 16.2V42L12.1002 42.5Z" fill="#DC5E82"/>
<path d="M3.2002 15.9V18.6V26C3.2002 26.1 3.3002 26.1 3.3002 26.1L49.1002 9.89999L48.6002 8.29999C48.7002 8.29999 48.7002 8.09999 48.6002 8.09999L41.2002 7.59999L37.4002 7.39999H3.5002" fill="#F56991"/>
<path d="M14.6001 42.6H2.1001V33.2L2.2001 17" stroke="#444444" stroke-width="2.5" stroke-miterlimit="10" stroke-linecap="round" stroke-linejoin="round"/>
<path d="M14.7002 7.60001H2.2002V17" stroke="#444444" stroke-width="2.5" stroke-miterlimit="10" stroke-linecap="round" stroke-linejoin="round"/>
<path d="M36.3003 7.60001H48.8003V17V34.3" stroke="#444444" stroke-width="2.5" stroke-miterlimit="10" stroke-linecap="round" stroke-linejoin="round"/>
<path d="M48.8003 33.2V42.6" stroke="#444444" stroke-width="2.5" stroke-miterlimit="10" stroke-linecap="round" stroke-linejoin="round"/>
<path d="M48.8003 42.6H36.3003" stroke="#444444" stroke-width="2.5" stroke-miterlimit="10" stroke-linecap="round" stroke-linejoin="round"/>
<path fill-rule="evenodd" clip-rule="evenodd" d="M7.40002 32.8C8.70002 33 8.50002 32.8 8.50002 31.8C8.50002 31.5 8.50002 31.3 8.50002 31C8.50002 28 10.9 25.5 14 25.5C17 25.5 19.5 27.9 19.5 31C19.5 31.4 19.5 31.8 19.5 32.2C19.4 33.5 19.6 33.4 20.6 33.5H30.3C31.6 33.4 31.2 33.6 31.1 32.2C31.1 31.8 31.1 31.4 31.1 31C31.1 28 33.5 25.5 36.6 25.5C39.6 25.5 42.1 27.9 42.1 31C42.1 31.3 42.1 31.6 42.1 31.9C42 32.7 42.2 32.7 42.9 32.8H44.2C44.9 32.8 43.8 32.4 44 31.7C44.3 30.8 44.2 30.2 44.2 29.2C44.2 28.6 44.1 28.2 43.6 28.2C43.6 28.1 44.1 26.7 43.5 25.4C43.1 24.6 41.2 22.7 40.4 22.1C38.8 21 35.2 17.7 31.9 15.7C31.1 15.2 30.7 15.1 30 14.8C28.8 14.4 27.2 14.1 25.6 14.2C21.6 14.3 16.1 14 12.5 14.3C12.1 14.3 12.7 14.7 12.2 15.5C11.3 17 9.20002 19.6 8.70002 22C8.10002 24.6 8.00002 26.8 8.00002 27.9C8.00002 28 7.70002 27.9 7.50002 28C6.70002 28.1 6.80002 28.4 6.80002 29.1C6.40002 30.4 6.50002 32.7 7.40002 32.8ZM31.8 22.2C31.8 22.3 20.6 21.9 18.2 21.9C17.6 21.9 17.3 21.8 17.2 21.2C17.1 19.9 17.8 17.5 18.4 16.1C18.5 15.9 18.7 15.5 19 15.5C20.9 15.5 27.1 15.3 28.9 15.9C31 16.6 32.4 19 34 20.5C33.2 20.4 31.6 20.5 31.6 21.2C31.7 21.6 31.8 22.1 31.8 22.2ZM15.2 15.4C13.1 15.4 10.9 18.8 10.3 20.5C10 21.3 10.1 21.5 10.9 21.6C11.3 21.6 12.6 21.7 12.9 21.6C14.4 21.5 14.6 21.7 15.1 21C15.7 20.3 16.1 18.1 16.7 16.3C16.9 15.7 17.1 15.5 16.6 15.4C16.3 15.4 15.6 15.4 15.2 15.4Z" fill="#444444"/>
<path d="M36.4001 35.5C38.6644 35.5 40.5 33.6644 40.5 31.4C40.5 29.1356 38.6644 27.3 36.4001 27.3C34.1357 27.3 32.3 29.1356 32.3 31.4C32.3 33.6644 34.1357 35.5 36.4001 35.5Z" stroke="#444444" stroke-miterlimit="10"/>
<path d="M13.8 35.3C16.0643 35.3 17.9 33.4644 17.9 31.2C17.9 28.9356 16.0643 27.1 13.8 27.1C11.5356 27.1 9.69995 28.9356 9.69995 31.2C9.69995 33.4644 11.5356 35.3 13.8 35.3Z" stroke="#444444" stroke-miterlimit="10"/>
</g>
<defs>
<clipPath id="clip0_612_2">
<rect width="50" height="50" fill="white"/>
</clipPath>
</defs>
</svg>

<svg xmlns="http://www.w3.org/2000/svg" id="Camada_3" x="0" y="0" version="1.1" viewBox="0 0 50 50" xml:space="preserve"><style>.st2{fill:#444}.st4,.st5{stroke-linecap:round;stroke-linejoin:round}.st4{fill:none;stroke:#444;stroke-miterlimit:10;stroke-width:2.5}.st5{stroke-width:.75}.st11,.st5{fill:none;stroke:#444;stroke-miterlimit:10}.st11{fill-rule:evenodd;clip-rule:evenodd}</style><path fill="#71bac0" d="M306 306.5l-23.1 8.5-9.4.1-4.1-1-1.8-.7v-16.1l37.6-8.5 1.3 5.7"/><path fill="#7ed0d6" d="M267.2 295.2l.1 4.4-.2 3.7 38.6-14.1-6-1.4-8.4.6-4.9-.2z"/><path d="M300.4 312.8c.8-1.3 1.2-2.9 1.2-4.5 0-5.1-4.2-9.3-9.3-9.3-5.1 0-9.3 4.2-9.3 9.3 0 5.1 4.2 9.3 9.3 9.3 2 0 3.8-.6 5.4-1.7l5.8 5.8c.4.4.9.6 1.5.6 1.1 0 2.1-.9 2.1-2.1 0-.6-.2-1.1-.6-1.5l-6.1-5.9zm-16.2-4.6c0-4.4 3.6-8 8-8s8 3.6 8 8-3.6 8-8 8-8-3.6-8-8zm20.6 12.7c-.2 0-.4-.1-.5-.2l-5.7-5.7c.4-.3.7-.7 1-1.1l5.7 5.7c.1.1.2.3.2.5.1.5-.3.8-.7.8z" class="st2"/><circle cx="292.2" cy="308.2" r="7.5" fill="none" stroke="#444" stroke-miterlimit="10" stroke-width="2"/><path d="M280.2 321.6h13.4m-2.1-2.3l.7 2.2h-10.7l1.6-6.7h-13.6s-2.1-.4-2.1-2.4v-21.9s0-2.4 2.8-2.4h33.3s2.6 0 2.6 2.7v20.7s-.1.9-.6 1.7" class="st4"/><path d="M280.9 308.1v-5.7s-.2-1-1.4-1c-1.4 0-1.5.9-1.5.9v5.5" class="st2"/><path d="M269.8 308.2H282" class="st5"/><path d="M272.7 307.9v-4.2s0-.8 1.5-.8 1.5.9 1.5.9v4.1m10.7-8.3V298s0-.9-1.5-.9-1.5.8-1.5.8v5s.6-1.5 2.9-3.1l.1-.2zm5.3-2.1v-4.1s0-.9-1.5-.9-1.5.8-1.5.8v5.2s2-.6 2.9-.6l.1-.4zm5.3 1.2v-2.1s0-.9-1.5-.9-1.5.8-1.5.8v1.6s1.9.4 2.9 1l.1-.4zm5.4 7.2v-12.8s0-.9-1.5-.9-1.5.8-1.5.8v7.8c.1.1 2.5 1.7 3 5.1z" class="st2"/><path fill="none" stroke="#444" stroke-linecap="round" stroke-linejoin="round" stroke-miterlimit="10" d="M267.4 311h14.2m20.6 0h4"/><path d="M287.8 307.1s.1-1.1 1-2.1c.5-.6 1.5-1.2 2.7-1.2m1.4 0s.5 0 1 .3" class="st5"/><path fill="none" stroke="#444" stroke-linecap="round" stroke-linejoin="round" stroke-miterlimit="10" stroke-width="2" d="M298.2 314.5l6.6 6.4.8-.8-6.5-6.2"/><path fill="#dc5e82" d="M12.1 42.5L49.8 29l-1-21.2-46.6 8.4V42z"/><path fill="#f56991" d="M3.2 15.9V26c0 .1.1.1.1.1L49.1 9.9l-.5-1.6c.1 0 .1-.2 0-.2l-7.4-.5-3.8-.2H3.5"/><path d="M14.6 42.6H2.1v-9.4L2.2 17m12.5-9.4H2.2V17m34.1-9.4h12.5v26.7m0-1.1v9.4m0 0H36.3" class="st4"/><path fill="#444" fill-rule="evenodd" d="M7.4 32.8c1.3.2 1.1 0 1.1-1V31c0-3 2.4-5.5 5.5-5.5 3 0 5.5 2.4 5.5 5.5v1.2c-.1 1.3.1 1.2 1.1 1.3h9.7c1.3-.1.9.1.8-1.3V31c0-3 2.4-5.5 5.5-5.5 3 0 5.5 2.4 5.5 5.5v.9c-.1.8.1.8.8.9h1.3c.7 0-.4-.4-.2-1.1.3-.9.2-1.5.2-2.5 0-.6-.1-1-.6-1 0-.1.5-1.5-.1-2.8-.4-.8-2.3-2.7-3.1-3.3-1.6-1.1-5.2-4.4-8.5-6.4-.8-.5-1.2-.6-1.9-.9-1.2-.4-2.8-.7-4.4-.6-4 .1-9.5-.2-13.1.1-.4 0 .2.4-.3 1.2-.9 1.5-3 4.1-3.5 6.5-.6 2.6-.7 4.8-.7 5.9 0 .1-.3 0-.5.1-.8.1-.7.4-.7 1.1-.4 1.3-.3 3.6.6 3.7zm24.4-10.6c0 .1-11.2-.3-13.6-.3-.6 0-.9-.1-1-.7-.1-1.3.6-3.7 1.2-5.1.1-.2.3-.6.6-.6 1.9 0 8.1-.2 9.9.4 2.1.7 3.5 3.1 5.1 4.6-.8-.1-2.4 0-2.4.7.1.4.2.9.2 1zm-16.6-6.8c-2.1 0-4.3 3.4-4.9 5.1-.3.8-.2 1 .6 1.1.4 0 1.7.1 2 0 1.5-.1 1.7.1 2.2-.6.6-.7 1-2.9 1.6-4.7.2-.6.4-.8-.1-.9h-1.4z" clip-rule="evenodd"/><circle cx="36.4" cy="31.4" r="4.1" class="st11"/><circle cx="13.8" cy="31.2" r="4.1" class="st11"/></svg>
